_includes/icons/color-video-call.svg

<svg fill="#666" height="50" viewBox="0 0 48 48" width="50" xmlns="http://www.w3.org/2000/svg"><path d="m8 12h22c2.199219 0 4 1.800781 4 4v16c0 2.199219-1.800781 4-4 4h-22c-2.199219 0-4-1.800781-4-4v-16c0-2.199219 1.800781-4 4-4z" fill="#4caf50"/><path d="m44 35-10-6v-10l10-6z" fill="#388e3c"/></svg>

<svg xmlns="http://www.w3.org/2000/svg" viewBox="0 0 48 48" width="50" height="50" fill="#666"><path d="M 8 12 L 30 12 C 32.199219 12 34 13.800781 34 16 L 34 32 C 34 34.199219 32.199219 36 30 36 L 8 36 C 5.800781 36 4 34.199219 4 32 L 4 16 C 4 13.800781 5.800781 12 8 12 Z" fill="#4caf50"/><path d="M 44 35 L 34 29 L 34 19 L 44 13 Z" fill="#388e3c"/></svg>
